X:1
T:I Am on the Way
T:I Am on the Way
T:J. D. Eller
T:J. D. Eller, 1919
T:Public Domain Courtesy of the Cyber Hymnal™
T:Public Domain Courtesy of the Cyber Hymnal™
C:J. D. Eller
Z:Public Domain
Z:Courtesy of the Cyber Hymnal™
%%score ( 1 2 ) ( 3 4 )
L:1/8
Q:1/4=90
M:4/4
K:Bb
V:1 treble 
V:2 treble 
V:3 bass 
V:4 bass 
V:1
 !fermata![Fd]>[DB] | [Fd]>[Fd] [Fd]>[Ec] [DB]2 [FB]>[FB] | [GB]>[Gc] [GB]>[EG] [DF]2 [DF]>[EG] | %3
w: 1.~On the|cross of Cal- va- ry, My Re-|deem- er died for me, And for|
w: 2.~I was|lost in sin and night, With no|hope of peace and light, Wan- dering|
w: 3.~Ful- ly|yield- ing Christ my heart, Bid- ding|doubts and fears de- part, Trust- ing|
 [FB]>[FB] [FB]>[Fc] [Fd]>[Fd] [Fd]>[=EB] | [Fc]6 !fermata![Fd]>[DB] | %5
w: all His follow- ers He pre- pares a|place; Since I|
w: far- ther from my Sav- ior day by|day; But thro’|
w: Him that I in sin no more shall|stray; To the|
 [Fd]>[Fd] [Fd]>[Ec] [DB]2 [FB]>[FB] | [GB]>[Gc] [GB]>[EG] [DF]2 [DF]>[EG] | %7
w: clasped His lov- ing hand, Out in|sin’s great de- sert land, I am|
w: par- doning grace and love, To the|hap- py home a- bove, With a|
w: home of joy un- told, Where I|shall His face be- hold, Prais- ing|
 [FB]>[FB] [FB]>[Gc] [Fd]>[Fd] [Fc]>[Ec] | [DB]6 ||"^Refrain" B>B | %10
w: on the way to Hea- ven, praise His|grace!|O the|
w: song of glad- ness, I am on the|way.||
w: Him for vic- tory, I am on the|way.||
 ([EB]2 [EB]2 [GB]>)[FA] [FB]>[Fc] | [Fd] ([DB][DF]>[EG][DF][DF]) B>B | %12
w: pre- * * cious love of|Je- sus, * * * * It is|
w: ||
w: ||
 ([DB]2 [DB]2 [DG]>)[DB] [=Ec]>[Ed] | ([Fc][Fc][Fc]>[Fd] [Fc]2) d>d | %14
w: burn- * * ing in my|soul; * * * * I am|
w: ||
w: ||
 ([Fd]2 [Fd]2 [Fd]>)[DB] [FB]>[Fc] | [Fd] ([FB][FB]>[Fc][Bd][Bd]) c>c | %16
w: on * * the way to|glo- ry, * * * * Where I|
w: ||
w: ||
 ([Ac]2 [Ac]2 [Af]>)[Ae] [Ad]>[Ac] | B6 x5 |] %18
w: shall * * Him e’er ex-|tol!|
w: ||
w: ||
V:2
 x2 | x8 | x8 | x8 | x8 | x8 | x8 | x8 | x6 || x2 | x8 | x8 | x8 | x8 | x8 | x8 | x8 | %17
 (BFG>G F2) x5 |] %18
V:3
 !fermata![B,,B,]>[B,,F,] | [B,,B,]>[B,,B,] [B,,B,]>[B,,B,] [B,,F,]2 [D,B,]>[D,B,] | %2
w: ~ ~|~ ~ ~ ~ ~ ~ ~|
 [E,B,]>[E,B,] [E,B,]>[E,B,] [B,,B,]2 [B,,B,]>[B,,B,] | %3
w: ~ ~ ~ ~ ~ ~ ~|
 [B,,D]>[B,,D] [D,B,]>[F,A,] B,>B, B,>[G,B,] | [F,A,]6 !fermata![B,,B,]>[B,,F,] | %5
w: ~ ~ ~ ~ ~ ~ ~ ~|~ ~ ~|
 [B,,B,]>[B,,B,] [B,,B,]>[B,,B,] [B,,F,]2 [D,B,]>[D,B,] | %6
w: ~ ~ ~ ~ ~ ~ ~|
 [E,B,]>[E,B,] [E,B,]>[E,B,] [B,,B,]2 [B,,B,]>[B,,B,] | %7
w: ~ ~ ~ ~ ~ ~ ~|
 [B,,D]>[B,,D] [D,B,]>[E,B,] [F,B,]>[F,B,] [F,A,]>F, | [B,,F,]6 || B,,>D, | %10
w: ~ ~ ~ ~ ~ ~ ~ ~|~|~ ~|
 G,2 G,2 [E,B,]>[E,C] [D,B,]>[C,A,] | [B,,B,][B,,-F,] B,>B, B,B, D,>D, | %12
w: O the cious ~ ~ ~|~ love * of Je- sus, ~ It|
 B,2 B,2 [G,B,]>[G,B,] [C,G,]>[C,B,] | A,A, A,>B, A,2 F,>D, | %14
w: is burn- ~ ~ ~ yes,|in my soul ~ ~ I am|
 B,2 B,2 [B,,B,]>[B,,F,] [D,B,]>[F,A,] | B,[B,D]D3/2G,>E, x5/2 | F2 F2 [F,C]>[F,C] [F,F]>[F,C] | %17
w: on ~ ~ ~ ~ way|* to glo- * *|ry, ~ ~ Where I shall|
 D x10 |] %18
w: ~|
V:4
 x2 | x8 | x8 | x4 B,>B, B,3/2 x/ | x8 | x8 | x8 | x15/2 F,/ | x6 || x2 | E,4- x4 | x2 B,,4 x2 | %12
 G,4- x4 | F,6 x2 | B,,6- x2 | B, B,4 E/FF x/ | F,4- x4 | B,,6 DE>E D2 |] %18

